X: 123
T: Mountain Ranger  [Bb]
R: hornpipe
Z: 2012 John Chambers <jc:trillian.mit.edu>
B: NEFR #123
M: C|
L: 1/8
K: Bb
FE |\
"Bb"DF Bc "(Gm)"d2 cd | "Cm"ed cB "F7"G2 FE | "Bb"DF Bc "(Gm)"dB AB | "Eb"gf dB "F7"c2 FE |
"Bb"DF Bc "(Gm)"d2 cd | "Cm"ed cB "F7"G2 FE | "Bb"DF Bd "F7"cB Ac | "Bb"B2 d2 B2 :|
|: Bc |\
"Bb"dB AB GB FB | "Bb"DF Bc dB AB | "Eb"gB fB ed cB | "C7"Gc cB "F7"AB ce |
"Bb"dB {c}((3BAB) GB FB | "Bb"DF Bc dB AB | "Eb"gB fB "Cm"ed cB | "F7"AF GA "Bb"B2 :|
